svgs/thin/shelves.svg

<svg xmlns="http://www.w3.org/2000/svg" viewBox="0 0 640 512"><!--! Font Awesome Pro 6.6.0 by @fontawesome - https://fontawesome.com License - https://fontawesome.com/license (Commercial License) Copyright 2024 Fonticons, Inc. --><path d="M8 0c4.4 0 8 3.6 8 8l0 168 608 0L624 8c0-4.4 3.6-8 8-8s8 3.6 8 8l0 176 0 256 0 64c0 4.4-3.6 8-8 8s-8-3.6-8-8l0-56L16 448l0 56c0 4.4-3.6 8-8 8s-8-3.6-8-8l0-64L0 184 0 8C0 3.6 3.6 0 8 0zm8 432l608 0 0-240L16 192l0 240zM448 16l-64 0c-8.8 0-16 7.2-16 16l0 64c0 8.8 7.2 16 16 16l64 0c8.8 0 16-7.2 16-16l0-64c0-8.8-7.2-16-16-16zM384 0l64 0c17.7 0 32 14.3 32 32l0 64c0 17.7-14.3 32-32 32l-64 0c-17.7 0-32-14.3-32-32l0-64c0-17.7 14.3-32 32-32zM128 272c-8.8 0-16 7.2-16 16l0 64c0 8.8 7.2 16 16 16l64 0c8.8 0 16-7.2 16-16l0-64c0-8.8-7.2-16-16-16l-64 0zM96 288c0-17.7 14.3-32 32-32l64 0c17.7 0 32 14.3 32 32l0 64c0 17.7-14.3 32-32 32l-64 0c-17.7 0-32-14.3-32-32l0-64zm192-16c-8.8 0-16 7.2-16 16l0 64c0 8.8 7.2 16 16 16l64 0c8.8 0 16-7.2 16-16l0-64c0-8.8-7.2-16-16-16l-64 0zm-32 16c0-17.7 14.3-32 32-32l64 0c17.7 0 32 14.3 32 32l0 64c0 17.7-14.3 32-32 32l-64 0c-17.7 0-32-14.3-32-32l0-64z"/></svg>

<svg xmlns="http://www.w3.org/2000/svg" viewBox="0 0 640 512"><!--! Font Awesome Pro 6.4.0 by @fontawesome - https://fontawesome.com License - https://fontawesome.com/license (Commercial License) Copyright 2023 Fonticons, Inc. --><path d="M8 0c4.4 0 8 3.6 8 8V176H624V8c0-4.4 3.6-8 8-8s8 3.6 8 8V184 440v64c0 4.4-3.6 8-8 8s-8-3.6-8-8V448H16v56c0 4.4-3.6 8-8 8s-8-3.6-8-8V440 184 8C0 3.6 3.6 0 8 0zm8 432H624V192H16V432zM448 16H384c-8.8 0-16 7.2-16 16V96c0 8.8 7.2 16 16 16h64c8.8 0 16-7.2 16-16V32c0-8.8-7.2-16-16-16zM384 0h64c17.7 0 32 14.3 32 32V96c0 17.7-14.3 32-32 32H384c-17.7 0-32-14.3-32-32V32c0-17.7 14.3-32 32-32zM128 272c-8.8 0-16 7.2-16 16v64c0 8.8 7.2 16 16 16h64c8.8 0 16-7.2 16-16V288c0-8.8-7.2-16-16-16H128zM96 288c0-17.7 14.3-32 32-32h64c17.7 0 32 14.3 32 32v64c0 17.7-14.3 32-32 32H128c-17.7 0-32-14.3-32-32V288zm192-16c-8.8 0-16 7.2-16 16v64c0 8.8 7.2 16 16 16h64c8.8 0 16-7.2 16-16V288c0-8.8-7.2-16-16-16H288zm-32 16c0-17.7 14.3-32 32-32h64c17.7 0 32 14.3 32 32v64c0 17.7-14.3 32-32 32H288c-17.7 0-32-14.3-32-32V288z"/></svg>
